X: 17656
T: Holloway Road Fling, The
R: reel
M: 4/4
K: Dmajor
D2DF A2AB|deed efdB|D2DF AFAB|dBAF EED2|
D2DF A2AB|deed efd2|D2DF AFAB|dBAF EED2||
defd A2AB|defd AB2c|d2ed Bcdc|dBAF EED2|
defd A2AB|defd AB2c|d2ed Bcdc|dBAF EED2||

